assets/player/play_play.svg

<?xml version="1.0" encoding="UTF-8"?>
<svg width="24px" height="24px" viewBox="0 0 24 24" version="1.1" xmlns="http://www.w3.org/2000/svg" xmlns:xlink="http://www.w3.org/1999/xlink">
    <title>编组 4</title>
    <g id="页面-1" stroke="none" stroke-width="1" fill="none" fill-rule="evenodd">
        <g id="歌库-播放详情页歌词" transform="translate(-176.000000, -700.000000)">
            <g id="编组-4" transform="translate(176.000000, 700.000000)">
                <rect id="矩形" x="0" y="0" width="24" height="24"></rect>
                <g id="编组" transform="translate(5.000000, 2.000000)" fill="#000000" fill-rule="nonzero">
                    <path d="M8.8817842e-16,2.00005219 L0.00668610963,1.83623769 C0.0599787181,1.18573729 0.42871192,0.597762828 0.999937666,0.267962647 C1.61876556,-0.0893208823 2.38121335,-0.0893208823 3.00004124,0.267962647 C3.02384231,0.281704321 3.04729183,0.295894214 3.07038164,0.310518174 L3.0699838,0.310175099 L3.10425139,0.332450691 C3.1199797,0.342862033 3.13553389,0.353477814 3.15091126,0.364293344 L15.16992,8.3795882 C15.6675899,8.74515545 15.993883,9.33592215 15.9999156,9.99947038 C16.0060025,10.6811599 15.682337,11.2887528 15.1732561,11.6508601 L15.0999204,11.6993468 L3.10194247,19.668142 C2.781575,19.889759 2.40022656,20.0139892 1.99998944,19.9987431 C0.899995253,19.958746 0,19.0988086 0,17.9988886 L0,17.9988886 L8.8817842e-16,2.00005219 Z" id="形状结合"></path>
                </g>
            </g>
        </g>
    </g>
</svg>

<svg height="24" viewBox="0 0 24 24" width="24" xmlns="http://www.w3.org/2000/svg"><g fill="none" fill-rule="evenodd"><path d="m0 0h24v24h-24z"/><path d="m0 2.00005219.00668611-.1638145c.05329261-.6505004.42202581-1.23847486.99325156-1.56827504.61882789-.35728353 1.38127568-.35728353 2.00010357 0 .02380107.01374167.04725059.02793156.0703404.04255552l-.00039784-.00034307.03426759.02227559c.01572831.01041134.0312825.02102712.04665987.03184265l12.01900874 8.01529486c.4976699.36556725.823963.95633395.8299956 1.61988218.0060869.68168952-.3175786 1.28928242-.8266595 1.65138972l-.0733357.0484867-11.99797793 7.9687952c-.32036747.221617-.70171591.3458472-1.10195303.3306011-1.09999419-.0399971-1.99998944-.8999345-1.99998944-1.9998545z" fill="#000" fill-rule="nonzero" transform="translate(5 2)"/></g></svg>
